X:33
T:Rakes of Mallow
S:John Moore's Book 1
Z:Transcribed by David Jacobs  April 2021
M:C|
L:1/8
K:G
%%VWML: Moore1-4493-p19-0
F:http://www.vwml.org/record/Moore1/4493/p20
GBGB GB d(A/G/)|FAFA FA c(B/A/)|GBGB GB d(c/B/)|c/B/A/G/FA G/G/G G2:|
|:g(f/e/)dc Bc d2|g(f/e/) dc (B/c/d)A2|g(f/e/)dc BG d2|c/B/A/G/ FA G/G/GG2:|]

